src/assets/filled/Blend2.svg

<svg width="24" height="24" viewBox="0 0 24 24"  xmlns="http://www.w3.org/2000/svg">
<path d="M15.9 8.07C15.45 4.64 12.52 2 8.96997 2C5.09997 2 1.96997 5.13 1.96997 9C1.96997 12.55 4.60997 15.48 8.03997 15.93C8.33997 15.98 8.64997 16 8.96997 16C9.08634 16 9.20121 15.997 9.31516 15.991C9.53553 15.9793 9.62602 15.716 9.46997 15.56C9.17997 15.26 9.17997 14.79 9.46997 14.5C9.75997 14.2 10.24 14.2 10.53 14.5L11.3095 15.2795C11.4496 15.4196 11.6599 15.4653 11.8409 15.3847C12.2234 15.2145 12.5852 15.0103 12.9263 14.7743C13.1705 14.6053 13.186 14.2581 12.9749 14.0493L12.47 13.55C12.18 13.26 12.17 12.79 12.47 12.49C12.76 12.2 13.23 12.19 13.53 12.48L14.0385 12.9829C14.2484 13.1904 14.5929 13.1728 14.7609 12.9302C14.9916 12.5969 15.1925 12.2431 15.3575 11.869C15.4369 11.689 15.3906 11.4806 15.2515 11.3415L14.47 10.56C14.18 10.26 14.18 9.79 14.47 9.5C14.76 9.2 15.24 9.2 15.53 9.5C15.686 9.65604 15.9493 9.56556 15.9609 9.34519C15.967 9.23124 15.97 9.11637 15.97 9C15.97 8.68 15.95 8.37 15.9 8.07Z" />
<path d="M21.97 15C21.97 18.87 18.84 22 14.97 22C12.0399 22 9.52573 20.2001 8.4916 17.6328C8.36639 17.322 8.63489 17 8.97001 17C9.32001 17 9.65001 16.98 9.99001 16.93L10.4951 16.8627C10.6495 16.8421 10.8046 16.8946 10.9147 17.0048L11.44 17.53C11.59 17.68 11.78 17.75 11.97 17.75C12.17 17.75 12.36 17.68 12.5 17.53C12.8 17.24 12.8 16.76 12.5 16.47C12.4037 16.3737 12.4339 16.2103 12.5558 16.1496C12.9548 15.9507 13.3636 15.6973 13.7316 15.4238C13.9394 15.2694 14.2311 15.2794 14.4153 15.4613L14.9 15.94C15.05 16.08 15.24 16.16 15.43 16.16C15.62 16.16 15.82 16.08 15.96 15.93C16.25 15.64 16.25 15.16 15.95 14.87L15.472 14.398C15.2892 14.2175 15.2741 13.9286 15.4254 13.7211C15.6888 13.3598 15.9362 12.9667 16.1328 12.5818C16.1921 12.4659 16.348 12.438 16.44 12.53C16.59 12.68 16.78 12.75 16.97 12.75C17.17 12.75 17.36 12.68 17.5 12.53C17.8 12.24 17.8 11.76 17.5 11.47L16.9747 10.9448C16.8646 10.8346 16.8121 10.6795 16.8327 10.5251L16.9 10.02C16.95 9.68004 16.97 9.35004 16.97 9.00004C16.97 8.66508 17.292 8.39682 17.6025 8.52233C20.1624 9.55689 21.97 12.0705 21.97 15Z" />
</svg>

<?xml version="1.0" encoding="UTF-8"?>
<svg width="24" height="24" viewBox="0 0 24 24" xmlns="http://www.w3.org/2000/svg">
 <path d="m15.9 8.07c-0.45-3.43-3.38-6.07-6.93-6.07-3.87 0-7 3.13-7 7 0 3.55 2.64 6.48 6.07 6.93 0.3 0.05 0.61 0.07 0.93 0.07 0.11637 0 0.23124-3e-3 0.34519-9e-3 0.22037-0.0117 0.31086-0.275 0.15481-0.431-0.29-0.3-0.29-0.77 0-1.06 0.29-0.3 0.77003-0.3 1.06 0l0.7795 0.7795c0.1401 0.1401 0.3504 0.1858 0.5314 0.1052 0.3825-0.1702 0.7443-0.3744 1.0854-0.6104 0.2442-0.169 0.2597-0.5162 0.0486-0.725l-0.5049-0.4993c-0.29-0.29-0.3-0.76 0-1.06 0.29-0.29 0.76-0.3 1.06-0.01l0.5085 0.5029c0.2099 0.2075 0.5544 0.1899 0.7224-0.0527 0.2307-0.3333 0.4316-0.6871 0.5966-1.0612 0.0794-0.18 0.0331-0.3884-0.106-0.5275l-0.7815-0.7815c-0.29-0.3-0.29-0.77 0-1.06 0.29-0.3 0.77-0.3 1.06 0 0.156 0.15604 0.4193 0.06556 0.4309-0.15481 0.0061-0.11395 0.0091-0.22882 0.0091-0.34519 0-0.32-0.02-0.63-0.07-0.93z"/>
 <path d="m21.97 15c0 3.87-3.13 7-7 7-2.9301 0-5.4443-1.7999-6.4784-4.3672-0.12521-0.3108 0.14329-0.6328 0.47841-0.6328 0.35 0 0.68-0.02 1.02-0.07l0.50509-0.0673c0.1544-0.0206 0.3095 0.0319 0.4196 0.1421l0.5253 0.5252c0.15 0.15 0.34 0.22 0.53 0.22 0.2 0 0.39-0.07 0.53-0.22 0.3-0.29 0.3-0.77 0-1.06-0.0963-0.0963-0.0661-0.2597 0.0558-0.3204 0.399-0.1989 0.8078-0.4523 1.1758-0.7258 0.2078-0.1544 0.4995-0.1444 0.6837 0.0375l0.4847 0.4787c0.15 0.14 0.34 0.22 0.53 0.22s0.39-0.08 0.53-0.23c0.29-0.29 0.29-0.77-0.01-1.06l-0.478-0.472c-0.1828-0.1805-0.1979-0.4694-0.0466-0.6769 0.2634-0.3613 0.5108-0.7544 0.7074-1.1393 0.0593-0.1159 0.2152-0.1438 0.3072-0.0518 0.15 0.15 0.34 0.22 0.53 0.22 0.2 0 0.39-0.07 0.53-0.22 0.3-0.29 0.3-0.77 0-1.06l-0.5253-0.5252c-0.1101-0.1102-0.1626-0.2653-0.142-0.4197l0.0673-0.5051c0.05-0.33996 0.07-0.66996 0.07-1.02 0-0.33496 0.322-0.60322 0.6325-0.47771 2.5599 1.0346 4.3675 3.5482 4.3675 6.4777z"/>
</svg>
